!! 00000] TT[WS
!!!OTL: Yinyan he
!!!ARE: Asia, China, Shanxi Lishan
!! Ethnic Group: Han
!! WI, 255
!!!SCT: J0302
!!!YEM: Copyright 1995, estate of Helmut Schaffrath.
**kern
*ICvox
*Ivox
*M2/4
*k[f#]
*G:
{8ee
8ee
4dd
=1
8ee
8gg
8ee
8ee
=2
8ee
8dd
8cc
8a
=3
4.dd
8ee}
=4
{8cc
8dd
8gg
8ee
=5
8.dd
16ee
8dd
8cc
=6
8a
8dd
16a
16b
16a
16g
=7
16a
16g
8f#
16f#
16g
16f#
16g
=8
16a
16g
4f#}
{8g
=9
16a
16g
4f#
8g
=10
8.a
16a
8dd
8ee
=11
4.dd
8ee}
=12
{8.a
16b
8a
16g
16e
=13
8g
8d
8g
8e
=14
4.d
8e
=15
2d}
==
!!!AGN: Xiaodiao, Chundiao. XÅshi, Sichun
!!!ONB: ESAC (Essen Associative Code) Database: CHINA
!!!AMT: simple duple
!!!AIN: vox
!!!EED: Helmut Schaffrath
!!!EEV: 1.0
*-
